X:25
T:Stool of Repentance, The
R:single jig
C:Niel Gow, Scotland (1727-1807)
Z:id:hn-slide-25
M:6/8
K:A
a2e c2e|agf fec|aff f2e|fag f2e|a2e c2e|agf fec|d2e f2e|a2c B2A:|
|:cAA eAA|cAA edc|dBB fBB|dBB fed|cAA eAA|cAA edc|d2e f2e|a2c B2A:|
<end>
<start>
